dist/img/instagram.svg

<svg width="21" height="21" viewBox="0 0 21 21" fill="none" xmlns="http://www.w3.org/2000/svg">
<path d="M13.7143 10.4286C13.7143 12.317 12.1741 13.8571 10.2857 13.8571C8.39732 13.8571 6.85714 12.317 6.85714 10.4286C6.85714 8.54018 8.39732 7 10.2857 7C12.1741 7 13.7143 8.54018 13.7143 10.4286ZM15.5625 10.4286C15.5625 7.50893 13.2054 5.15178 10.2857 5.15178C7.36607 5.15178 5.00893 7.50893 5.00893 10.4286C5.00893 13.3482 7.36607 15.7054 10.2857 15.7054C13.2054 15.7054 15.5625 13.3482 15.5625 10.4286ZM17.0089 4.9375C17.0089 4.25446 16.4598 3.70536 15.7768 3.70536C15.0938 3.70536 14.5446 4.25446 14.5446 4.9375C14.5446 5.62053 15.0938 6.16964 15.7768 6.16964C16.4598 6.16964 17.0089 5.62053 17.0089 4.9375ZM10.2857 1.99107C11.7857 1.99107 15 1.87053 16.3527 2.40625C16.8214 2.59375 17.1696 2.82143 17.5313 3.18303C17.8929 3.54464 18.1205 3.89286 18.308 4.36161C18.8438 5.71428 18.7232 8.92857 18.7232 10.4286C18.7232 11.9286 18.8438 15.1429 18.308 16.4955C18.1205 16.9643 17.8929 17.3125 17.5313 17.6741C17.1696 18.0357 16.8214 18.2634 16.3527 18.4509C15 18.9866 11.7857 18.8661 10.2857 18.8661C8.78571 18.8661 5.57143 18.9866 4.21875 18.4509C3.75 18.2634 3.40179 18.0357 3.04018 17.6741C2.67857 17.3125 2.45089 16.9643 2.26339 16.4955C1.72768 15.1429 1.84821 11.9286 1.84821 10.4286C1.84821 8.92857 1.72768 5.71428 2.26339 4.36161C2.45089 3.89286 2.67857 3.54464 3.04018 3.18303C3.40179 2.82143 3.75 2.59375 4.21875 2.40625C5.57143 1.87053 8.78571 1.99107 10.2857 1.99107ZM20.5714 10.4286C20.5714 9.00893 20.5848 7.60268 20.5045 6.18303C20.4241 4.53571 20.0491 3.07589 18.8438 1.87053C17.6384 0.665177 16.1786 0.290177 14.5312 0.209821C13.1116 0.129464 11.7054 0.142856 10.2857 0.142856C8.86607 0.142856 7.45982 0.129464 6.04018 0.209821C4.39286 0.290177 2.93304 0.665177 1.72768 1.87053C0.522321 3.07589 0.147321 4.53571 0.0669643 6.18303C-0.0133929 7.60268 0 9.00893 0 10.4286C0 11.8482 -0.0133929 13.2545 0.0669643 14.6741C0.147321 16.3214 0.522321 17.7812 1.72768 18.9866C2.93304 20.192 4.39286 20.567 6.04018 20.6473C7.45982 20.7277 8.86607 20.7143 10.2857 20.7143C11.7054 20.7143 13.1116 20.7277 14.5312 20.6473C16.1786 20.567 17.6384 20.192 18.8438 18.9866C20.0491 17.7812 20.4241 16.3214 20.5045 14.6741C20.5848 13.2545 20.5714 11.8482 20.5714 10.4286Z" fill="black"/>
</svg>

<svg width="21" height="21" viewBox="0 0 21 21" fill="none" xmlns="http://www.w3.org/2000/svg"><path d="M13.714 10.429a3.435 3.435 0 01-3.428 3.428 3.435 3.435 0 01-3.429-3.428A3.435 3.435 0 0110.286 7a3.435 3.435 0 013.428 3.429zm1.848 0a5.27 5.27 0 00-5.276-5.277 5.27 5.27 0 00-5.277 5.277 5.27 5.27 0 005.277 5.276 5.27 5.27 0 005.277-5.276zm1.447-5.492a1.23 1.23 0 00-1.232-1.232 1.23 1.23 0 00-1.232 1.232c0 .684.549 1.233 1.232 1.233a1.23 1.23 0 001.232-1.232zm-6.723-2.946c1.5 0 4.714-.12 6.067.415a3.29 3.29 0 011.178.777c.362.362.59.71.777 1.179.536 1.352.415 4.567.415 6.067s.12 4.714-.415 6.066a3.288 3.288 0 01-.777 1.18 3.29 3.29 0 01-1.178.776c-1.353.536-4.567.415-6.067.415s-4.715.12-6.067-.415a3.289 3.289 0 01-1.179-.777 3.288 3.288 0 01-.777-1.178c-.535-1.353-.415-4.567-.415-6.067s-.12-4.715.415-6.067c.188-.47.416-.817.777-1.179a3.28 3.28 0 011.179-.777c1.352-.535 4.567-.415 6.067-.415zM20.57 10.43c0-1.42.014-2.826-.067-4.246-.08-1.647-.455-3.107-1.66-4.312C17.638.665 16.179.29 14.53.21 13.11.13 11.704.143 10.285.143S7.46.129 6.04.21C4.393.29 2.933.665 1.728 1.87.522 3.077.148 4.537.067 6.184-.013 7.603 0 9.009 0 10.429s-.013 2.825.067 4.245c.08 1.647.455 3.107 1.66 4.313 1.206 1.205 2.666 1.58 4.313 1.66 1.42.08 2.826.067 4.246.067 1.42 0 2.826.014 4.245-.067 1.648-.08 3.107-.455 4.313-1.66 1.205-1.206 1.58-2.666 1.66-4.313.08-1.42.067-2.826.067-4.245z" fill="#000"/></svg>
